X:62
T:Farmer's boy - Hard
%%VWML:SBG-1-2-273-0
F:http://www.vwml.org/record/SBG/1/2/273
Z:Original Sibelius transcriptions by M. & S. Graebe
M:4/4
I:linebreak $
K:D
V:1 treble nm="P1"
V:1
 A | d3/2 e/ d A | F A d c | B A G F | F2 E A | d3/2 e/ f e | c/B/c/d/ e d |$ c A c/B/A/^F/ | %8
 A2 z A | e e e d | e f g f/e/ | d A F D | A3/2 B/ A/G/F/D/ |$ D/E/F/G/ A A | B B A A | d d e e | %16
 f3/2 e/ d/c/B/A/ | A g f/e/d/c/ | d2 x2 | %19
T:Farmer's boy - Hannaford
F:http://www.vwml.org/record/SBG/1/2/273
Z:Original Sibelius transcriptions by M. & S. Graebe
M:4/4
I:linebreak $
K:G
V:1 treble nm="P1"
V:1
 G | B3/2 c/ d d | d g d B | c c/B/ G G | G3 G :| c3/2 d/e/f/ g |$ d c/A/ G G | B3/2 c/ d d | %8
 d g d d/B/ | c3/2 B/ G G | G2 z2 | %11
T:Farmer's boy - Benney
F:http://www.vwml.org/record/SBG/1/2/273
Z:Original Sibelius transcriptions by M. & S. Graebe
M:4/4
I:linebreak $
K:Bb
V:1 treble nm="P1"
V:1
 F | B B B F | D/F/E/C/ B, B | G F E D | D2 C A/B/ | c c c A | A/F/ G F A/B/ |$ c3/2 F/ A G | %8
 F3 A | c c c/A/ F | c d _e d | B F D B, | F3/2 G/ F/E/D/C/ |$"^chorus" B, B, F F | G G F3/2 F/ | %15
 B B c c | d3/2 c/ B/A/G/F/ | E e d c | B4 | %19
T:Farmer's boy - Adams
F:http://www.vwml.org/record/SBG/1/2/273
Z:Original Sibelius transcriptions by M. & S. Graebe
M:2/4
I:linebreak $
K:C
V:1 treble nm="P1"
V:1
 G2 | c3 c c2 G2 | E3 F G2 c2 | d3 c B2 A2 | G6 GG | c3 d e2 c2 | B3 c d2 GB |$ d3 c B2 A2 | %8
 G6 GB | d3 e d2 G2 | d3 e f2 ed | c2 G2 E2 C2 | G3 A GF ED |$ CD EF G2 G2 | A2 A2 G3 G | %15
 c2 c2 d2 d2 | e3 d c2 B2 | A2 d2 c2 B2 | c6 x2 | %19

